X:1786
T:Election tune
O:england
R:Jig
M:6/8
K:D
A | d2f f3 | e2g g3 | fed dcd | ecA ABc | \
d2 f f3 | e2g g2g | fed edc | d3 d2 :|
|:B | ABA F2G | A2d d2B | ABA FGA | G2E E2B | \
ABA F2G | A2a a2g | fed edc | d3 d2:|


